/* XPM */
static char *banner_xpm[] = {
"64 64 56 1",
"A c #8B0000",
"B c #9C1010",
"C c #AD2020",
"D c #BE3030",
"E c #7A0000",
"F c #690000",
"G c #580000",
"H c #470000",
"I c #CF4040",
"J c #B82828",
"K c #A11818",
"L c #8A0808",
"a c #FFD700",
"b c #F0C800",
"c c #E0B800",
"d c #D0A800",
"e c #C09800",
"f c #B08800",
"g c #A07800",
"h c #906800",
"i c #FFE030",
"j c #FFE850",
"k c #FFF070",
"l c #FFF890",
"M c #1A2F6A",
"N c #1F3778",
"O c #243F86",
"P c #294794",
"Q c #2E4FA2",
"R c #3357B0",
"S c #385FBE",
"T c #3D67CC",
"0 c #E8E8E8",
"1 c #F0F0F0",
"2 c #F8F8F8",
"3 c #FFFFFF",
"4 c #D0D0D0",
"5 c #C0C0C0",
"6 c #B0B0B0",
"7 c #A0A0A0",
"+ c #1A0505",
"- c #2A1010",
"= c #3A1A1A",
"? c #4A2525",
"@ c #C8A030",
"# c #B89020",
"$ c #A88010",
"% c #987000",
"^ c #5C4030",
"& c #6C4838",
"( c #7C5040",
") c #8C5848",
"* c #FFE880",
"/ c #FFD860",
"! c #FFC840",
"~ c #DAA520",
"=++?=?++-=-===---+*-=+=?+-==-?++??-+--==-+++++---??-++-+?===?===",
"+=-??=++=-=?++-+-+*-+-=+=+-??+==+=-?--=+-+++==--++-+?+=+=?+=---+",
"--?-+?+---=?=+?+?!~~=-====?+-++--++?++++-==-++=++==?=-+=?-=-=-?-",
"+==+?=+=++-+-+?=!!/!~++---==+-=?-+--?+-=-=?-?+-+===-++=++--==-++",
"-?-++?-+===+-++!!/**!~--+-=-===+--?+-=+-+-++-=?=-?+?-++-++-?----",
"?=-+=-=+==+?--?-^&()&-++==-?-+-=---=+?-?=-??=?++=---?--==++-=?=?",
"++---?+?----=?+-^&()&---?--+=--?-+-?+--===+--=-=+---?-++=?+=-=-+",
"=++++--+=++-=---^&()&?-?+--+-+?+=+-=?--=+=?-+?+-+-++-+-+??+-==+=",
"?====+-+-=+-+++=^&()aabebaababaabbaabbababaabaababababbbdba+++??",
"-+-=-+=+--?-=+-=^&()a=beccddcccdcccdddddcccdcddcdcccdddcdbc=-??-",
"+=+=-+++=-=-=+=+^&()babdBAJBAACCIDIDIBJJAJAAAIDDDDIDCAJJBdb-+-++",
"-?=++=-?=-?++-?=^&()&+b@#ABABDIDIIICCAABAAABJCICCIIIJBAABBdb++=-",
"+-++?=++=++--=?+^&()&-bdBJBJJIIDDDIIJAABJJAJBCCDCIDCAABBJBda-=++",
"-==-?---=++-==+=^&()&+aeFEABJCICCDCCBBAEFGJAJCIICICBJBAGFAea--?-",
"-++==+===-=-==-?^&()&+adFEJJADDDDDCJJJAEEEBBAIICCIDBBAFEEEda=??-",
"=-=?+-==?+?+==-=^&()&=adFGBBJJDIDCIAAAEGGGAJADCIDDBJBBEEFFdb?-==",
"--=+?++?-?-+-=-+^&()&-aeEEJBJAIDIDJJBEFEFGABJIICDDBBAGEGFGea+==-",
"--=+-+--+-?+++-=^&()&+adFFGBBJCIIABBAFFGFEAJABDIIABJFGFEFda-----",
"-=++--+=+=-?=--=^&()&-bdFGFBJJDCDJBAGFEFGFJJJAICJAJJGFEGea+?-?--",
"+---?+--=-+=--?+^&()&+aeEFEAABDDABBBFFGEFGBAJBCBBJBGGFEEda=?++?+",
"-?==-===++-++?-=^&()&-bdEGFBAAJBABJEEFFEEEBAJJJABAJGFFEdb-?=+=+-",
"+=+==--??-=-==++^&()&-adFGBBAJJAAcaccaaccabcbbcaAAEGGGdb?+++---+",
"-=+++==-?+==+?-+^&()&-beGFJAAAABJcNONQQRSRRPOPNcBAEFGGdb+=+?+=+-",
"-------=?+?==+--^&()&=aeEFJABJBAAcNPPPRTSSPPPONcAJEFGGdb==---+=-",
"==+++-++--=?=-?-^&()&-aeEEJABBAJJaNOPPQajiPQOONaAFEGGEea--+--?-=",
"+=?==+=++??+=+=+^&()&-aeGGBJBAAJAcNOORQiaaRRNPNbAEEFGEea==+-==-+",
"-=-=--===---+?==^&()&?bdFJBAJAAAJaMOOPajjjjROPNaJEFEEEdb-+?=?-=-",
"==-+=?=-==++--=+^&()&+aeFAJBJABBBcNNaRaaajjRaOMaAFGFEEEdb=-+?+?=",
"-+++==--====+=+?^&()&+bdBBJBCBAABcMaNRaaabaPPjMcBFGEEFGFda--?++-",
"=?-==?-++-+++===^&()&?beBABCCDBBAajNNQibjibPOPjaAEFEGFFAea==-===",
"-+?=?-?=-=++-=++^&()&+aeABADICBJBcMNNiaiaabbONMcAGFGFFGAeb==-==-",
"??=-?+=-+-==??-=^&()&+adJBCCDCBBAbMPORaiSaaQPOMaJGGEFGABAea?+==?",
"+==--+-++-+=---=^&()&-bdADICIIBAJbNPOPbcbbbQNPMcAFFFFBBABDdb+-?+",
"=+=+-=?=---+=---^&()&+bdJDCCICJBJcMPPPPbbcPPOONaAEFFFJJJIIdb-=+=",
"+=?=?==+=+-=+==+^&()&=bdICDIIIBJJbMONPRbabQQPPMaAJFFBJBJDCdb-+-+",
"-+=---+-?-?-=++=^&()&-adDCCDDDCJJJcNPOPRaSROPMcABJFBAJJCIIda--=-",
"--=??+-?=?=-?-?-^&()&+beCIIIIDJJAABbMPQTSSPNMcJBJJJJABJDCIda+---",
"+--??++=?=+-+=++^&()&+beDDCIDDAJJBBJaNPQTQPNbCABBBBBJADDIdb==?-+",
"=?+-+++-==+?=-+=^&()&-beIDDDICBABJABBbNQRPNaDIJJJAJABJDIIeb=-=-=",
"=--=----+=?=+++?^&()&=adCCICIDABJAJBBBcNTMaIIIBJJJJABADCda-=?+==",
"--=-+==+++-==+++^&()&=adIICICDABBBJABJCaTaDCDJABJAAJJDIIda-==+--",
"=+--==?=+-??+++-^&()&?adIICCCBBBJBAJBDDCbDDICBAABABAAIIdb-=+?+==",
"=-?++++??-=?+===^&()&-aeDDIDCBABBJBAAIDIDICDDAJABBAAAIda-=--=?==",
"--?=??=+?=+-=++=^&()&=aeCCCCCJBBJJABAIIIDDIDBAJBJAJABIeb--==+-=-",
"-?++=?++-+--=+++^&()&+beCDDIAJAAGBBAJIDCCIDIJAJAGABABCdb+?=+-+--",
"-==???-++-?-?+-?^&()&-adDIICJBAFGGJBJCIDCIIBJJJFEFAABDea+-=--==-",
"=++++===++=+-=-+^&()aabeICDJBAEGEEJAAIDDCIDJBJFEFGAAJCea+?-=--?=",
"-+---=+-=+?+-=+?^&()b=bdDCJJAJEGEFABBDIDCCAAJGFGGEBAADdb-==?+++-",
"=+-?++++==+---=+^&()aaaeDDJAJFFGFFJABJDCDCJBAGEFEFBABIIeb=--=--=",
"-?=++--?+=-==+++^&()&-beIJAAEFGFEFBAJJIIIJJAEFEGFGAAACCIda=--=--",
"++-+=?++===-??=-^&()&+bdBAJBFFGFGEJABBCIJJJJEEEFGGJABJCDeb---==+",
"=--?=++=-=++++?+^&()&=adJJBFEGGEEFAAAAABBJJFFGGFGFJABJBBea?=-=+=",
"=+??-+=-?=+--==+^&()&+adAEFEFEEBACCDDD???-+FFEAABDCCCCBAAeb??+-=",
"?=-+-=+?=??===-=^&()&+--BEEEEEFBADCDCD??+??EEEBABDCDDDBAA-==+?=?",
"+--=++---=+=?+=-^&()&+??=FEEFEEAACCDCD+--==FEEBABDDDCDBA+--?-+=+",
"+??=--++?-+-+-=+^&()&+----EEEEFBBCCDDC+=?-=EFFBBACCDCCA-=-=?-=++",
"-++-++?=?+--=+++^&()&?=?-abbccEBBDCDDDcabcaEFEAAbbcccD++-=--?++-",
"=-?=+--?-+=???-+^&()&+??+cabcbFBADCCDCabbacEEEBAaaacc-+-?-++?=-=",
"=-+?==+?-?+--=?=^&()&--++ccabbFAACDDCCbaabaEFFBAcbabc----+?--?==",
"+=+--+--=----+?-^&()&---$h#g#h$AACCDD$g#g$g#FFB$%@h#%$-+?-=?-=-+",
"-+?-==+==?+==+=-+=+?-?=-%$g#g@h=+=?==%#g$h#g?--h#%@g@g?--++++++-",
"-?----==++-=++-+==-+---+#%$%$%#=-++-+#g$h$%@=+-@%@h$g#-??+=--+?-",
"?-?+-+?-=??++---+-l+-=--%$g$g$g+?++=?%$h#h@%=-+%@g#h#%?+?=+=--=?",
"--+==-+?+=+-++=-++*+?--=$%$g@g@??-+++#h@h@%@=+=#h@%$g@?-++=--++-"
};