/* XPM */
static char *castle_stone_xpm[] = {
"64 64 58 1",
"A c #8C8A85",
"B c #878580",
"C c #82807B",
"D c #7D7B76",
"E c #787671",
"F c #73716C",
"G c #6E6C67",
"H c #696762",
"I c #64625D",
"J c #5F5D58",
"K c #5A5853",
"L c #55534E",
"M c #504E49",
"N c #4B4944",
"O c #46443F",
"P c #41403B",
"Q c #918F8A",
"R c #969490",
"S c #9B9995",
"T c #A09E9A",
"a c #2D4A28",
"b c #324F2D",
"c c #375432",
"d c #3C5937",
"e c #415E3C",
"f c #466341",
"g c #4B6846",
"h c #506D4B",
"i c #557250",
"j c #5A7755",
"0 c #1A1918",
"1 c #1F1E1D",
"2 c #242322",
"3 c #292827",
"4 c #2E2D2C",
"5 c #333231",
"6 c #383736",
"7 c #3D3C3B",
"w c #4A3728",
"x c #5C4632",
"y c #6E553C",
"z c #806446",
"+ c #FF6600",
"- c #FF8800",
"* c #FFAA00",
"/ c #FFCC00",
"= c #FFDD44",
"? c #FFEE88",
"@ c #FFFFAA",
"# c #FFFFCC",
"$ c #FF4400",
"% c #FF5500",
"^ c #CC3300",
"& c #AA2200",
"m c #3A3A40",
"n c #454550",
"o c #505060",
"p c #5B5B70",
"DFMDFEFDDOEEGDDD4KJJIJKNQKHJJJKH5FGGEFHSEFSEDEMHKKKRJJJHKTJKQIRD",
"EGDEENSDEFEGFDED4HHJKJKKKKJKKISI4FDFFFGOGGFFFFDF4JHJIIHKJSKKJNJE",
"EFNGDEDGDFTFDDG54RHKJIJJKHJIKHR#5FFFDNFHDDFFEGFS4KKJKKHIJKJJKKLE",
"EEDLGDDEDEEEDEGQ4JJHKRKIJJJHKHIS5DF@FGRQEFDFDDDDIHJKJJKJJHHJKIJE",
"GDTDFFEDTEGEDEEDKJJJKIJJJHIKKHJJ3GQSFNEFDDEFGF653JJJKJHIHKKRKHKG",
"EEEDGEFSGDDEEDDG5JJKJJJIJ@JJJKH53FHFFTSDFFFFDF2F5NJKHKKJLIJJKJJE",
"FGDSGGDEGNFFODED4JJIKIKJJIOKJSKJ3#QFHEHFDFHDDFH25IIKJJIKLJJKJJHF",
"GEEGDFEMSEGEDFED4JJKJQIIKNKHKKKOGHEFDHGHEFFE62DFJJJHKIKJLKJHKNKG",
"EEFEGOEGEEGFEDE54JJKJJKJHKJJ?KJH3HFDDTFQDHGE16NE3JJINQJKJJJJKKKE",
"65FFEEDD7EDEEE755KKJ76K6HJK5KKJJ3F5FDG7G57525DSE3J5JHJ7K655IK7J6",
"344344E3353K535M434555455444IN5II333I35443405444433533343553D453",
"ETDDFEED4KKKJJJIKKIKIKJJ3JKKK-?+JKKJSKKK5525FDDDERFFFDSD4DDRDDLE",
"GEGFDEFE4JKKIKKKKKKKKKIJ3JKK$=@#+KKIRKKJ5OD06DDFDTDDDFED4DDDDEDG",
"DEDDGFGD4KJKKNKKKKKIKJKK4IRI-@?@$KKKSMKI3540DEFDFDDEDDFD5FQFDEDD",
"DDGEDDFEKKKIQIKKKKKMJIJJ4IKK+??#-KMKKKII50DDTNDDDDDDRDED5DRDDDDD",
"DEEEDEF65KKJIJKJKKSKKKKM5KK+@=?=#+IKTKIR404SDDEQDFLDEFD64RDDEFDD",
"QQFOEENE4KIKIKKKKJKJSKK53KL-?=?=*+KKJIK63D16DDDTDDMDDDD63EFDEDMQ",
"EDDEGEDD4SKJKKKIKQKT7JK657K+/*/=*$K7R7K50FDFLD6FD5DODEDD4DDD6OLE",
"G44HN5533E34HI364344553533-/-+-*-*$435562G445543343454535333434G",
"IHGGHIGFHFGGGGG53KHKOKMJSQ$/*+**/++ED506EEEESEE64HIJOIIJGHHJTKII",
"MSHFOEIFFGNFGHH63MJIKJJKQI^%%+%--$&DED42DFGDFQEE4TLISGHIHKIKHQIM",
"ESGFFEGGFGEGHNGGKKIKTJHJK&$$+%$+$$+&DE0EDEEEDFGDIIJIIKIHIIOGHIGE",
"GGIMGIGFFHNRHFLG5IIKJJKIT$^%^&%^$$&$D2EGDDDGDGGD4RJIHKIJGJIKGIHG",
"HEHHGEGGHGEIIGFF3KJJKIIJH&&&$%%^$%%&FNDDEEEDEEEEKOJNOJIIIHQGKJIH",
"IGEGGIGGRHFGHGH54JJJJSKK^&%$$$$%$$$&&DDEQEEGQGEDIGJQIIJJKJIGIJNI",
"IHSGHHGGHGIHeeGN3KJJJHKI^%$^&^^^&$$&^DGONRQGEEGTNJGHQIIJQKJIHGGI",
"EFGGFGMGFGGGGEfFJOHKHKHJJQIK4x444EGQEFEGDFFDEODQ5HHIGJHHIJLQILGE",
"G5IGGHFTGIEQETO75JKJHJOJJJJ64x555MDQEGR5SE7EEQ7G3I56G57TSRIGISTG",
"I35354435DD53D55434445554344xx44xS4334J5534454353G4433344534544I",
"JJTJHKRS5TDDQDDDDFTDDEQS5HRTHxyxFJTTGII64HFRHRHEQDFGDHRE5FEODDDJ",
"JSLIKKLL3DSDDFDFDRDFDDQFJHLMHxyxTOSMHRIH5FDGEGHGMDEHHDFG5FLDQDDJ",
"KJKRJJJK3DDDDNDDDEFDDDT65QJLFxyxGSFFOHHS3RTLFGGLFGNQFERE3DDFDDEK",
"JJLKIHJ53DFFELDMDTDDSDSD1QHIFxyxGQHQRHIH5FFFFFGSHGFDHEF54DDSDNDJ",
"HIJHJK3J5FEFDFFDDDSEQQD551GHFxyxHRSHLQSJ5OEDFFHGLDFGFFDO5FDDDDDH",
"HKNILK364DDDEDDSDDDDFDD64Q3HIxyxSQHIHQH53FFDGHLDFOFFGTHF3DDDDDFH",
"5K5IK2KI7DDEDR7DD6D6DDD63JJ7TmnmHSHHQHRH56FGGHFEFFFH7FDF7D6DRDR5",
"345J5155534435534344454E3G433mnm4434K55443KJ3KJ4443E5545334544I3",
"MGHQNHHISGFGFGJQDEEQGEEDDEoonnnm3TK3JIJKKIHKKJKJHIfITGFQFLEFGGGM",
"HGGHHHHTJTGJIQHH4GEDDDFEQDmmmmnm4HKJQ1JKOJIISJKK3FEEegGGGHGEGFFH",
"HHIJRTRHIQJFHIL64EEQELDEQSREEmnm4KMKKH3HKHSJJIHJdfdRTGIEFFEFGIEH",
"GITJGJHHSJIFHFHI4DEELDDQEDFEEmnm5KSJRJI2JLHTIIJHFIgHIHGFGFFRIFGG",
"HOHHJJQNIJHHHJHT4EDGGGEEGEEDDmnm5HKIOKI1JNHIJKLIEQdcfHEHFQEHEGGH",
"FGITHFFQHFHRHIIM3GDDFFDFGTDDEmnm3JHKISKJ2MHQJOK63fIFGGEIRHGHHEGF",
"FJGHJHHRJHIHSFGREFEEOEEDDESEGED63HIHIKJJHKKJJJIJ5GGHHGGEHGIFGLRF",
"GGGFHGHIIFHHHFGH3EENEEELEEDDEED55NJKKKJKKKJKJKJ53EHGGRTGHHIEFGGG",
"IGIGH5HHf5c7HIG54LFDD5DF665D7QN555KJT5JH5HHJIKKJ467EG5GEEG5EEG5I",
"4355555fe545544H4453J356333554334334533543345555443F3435553M4334",
"GIHGFFGG3JOdIJJKJHQRKII65FFFEDFHEHEFEGGM5HTIMRHHFRHJJHO53GHFHLIG",
"SGEIGGHEddfHHIJIJIJJSLJM4FLESSDFHGSEFHFD3GHJHFIHRHSJHOJI4GFFGHGS",
"FGGGIFIMIIfKJJJJJKJJSJJH4EEDFFODGFDFFEFF5JIJGHIFGFIQJQGF3GHGGIGF",
"IGEIEFFcKhNISJITJTJHJJKJ3GHFGFEOFFGFRGG53HORFGHTRHHFHHRR3EIEIGHI",
"OGGGGEEG4HIJJKLKKHLISJJH4FTDDFDDHFEFGDHGIHMHFHHTHGHGHQJHTGFGEEHO",
"HFIOIMG64J2IHJJHJJKKKKJ55FREFGDFLFDFFFF55IFHJIFHTFHHGIFJ5FGQHSGH",
"NEIGGE554J2JHIJHI6RLJI5KE5D56FTF6SaGH5FF77INHGIFHHF5JG66fH656HGN",
"K5K555344K5O2a3543J444443453d35K4E55453b453E5344444433agh55434FK",
"KKKKeOKIIKK1KKKK5KKdKKKJKTKKJKKKEGDDDGeEGEEceDGE4FbFcGJeJceHHdHK",
"KMeIIcJKKRIKKKKR5bKKddKKbKKKIIKK3FDbEEbGDbFEEDDE3IJHGggfTSHHOHHK",
"KIOKKKKebKJKKdKK3KbKKaIKKRIKKKKbdFOEGFDEecDDEDaDIINHbGOIcIIGFHeK",
"KKSIIKKeKRKIKKbK4JdJKKacTKIeOdOKcEERcFDTaEbDGEDD4NJHHHaeagFGGHIK",
"JTKJMKKbKcINdKKe3JIKdIeKcaKKKKJIFDdEDEGbDOaFDDGD3TIbfHHHchHIQcaJ",
"JbcecKbKKeJJKaKebKcJdJQKJKKKJKI55EEDbaGaGSESEdEG5IHRFhgFFghJHeaJ",
"JKcdKJbKKbKKKdcRaJKeKRcJLJJKKKab5DEESbDEGDDGFbb5cITFedGGHHIHacIJ",
"JJKeKKKcIaTMKKcJ3cbKKKbKJJKKJKK64EGNDGFeeFEFEeaERLJJHhbbhHMLeHFJ",
"DFMDFEFDDOEEGDDD4KJJIJKNQKHJJJKH5FGGEFHSEFSEDEMHKKKRJJJHKTJKQIRD"
};