/* XPM */
static char *wooden_door_xpm[] = {
"64 64 62 1",
"A c #8B6914",
"B c #7D5F13",
"C c #6F5512",
"D c #614B11",
"E c #534110",
"F c #45370F",
"G c #372D0E",
"H c #29230D",
"I c #9A7815",
"J c #A98716",
"K c #B89617",
"L c #C7A518",
"M c #7A5A14",
"N c #694D13",
"O c #584012",
"P c #473311",
"Q c #8F6E15",
"R c #836414",
"S c #775A13",
"T c #6B5012",
"U c #5F4611",
"V c #533C10",
"W c #47320F",
"X c #3B280E",
"0 c #1C1C22",
"1 c #252530",
"2 c #2E2E3E",
"3 c #37374C",
"4 c #40405A",
"5 c #494968",
"6 c #525276",
"7 c #5B5B84",
"8 c #646492",
"9 c #6D6DA0",
"+ c #7676AE",
"- c #7F7FBC",
"* c #3A3A48",
"/ c #434356",
"= c #4C4C64",
"? c #555572",
"a c #0A0808",
"b c #0F0D0B",
"c c #14120E",
"d c #191711",
"e c #1E1C14",
"f c #232117",
"g c #28261A",
"h c #2D2B1D",
"i c #323020",
"j c #373523",
"r c #6B3A1A",
"s c #7A4420",
"t c #894E26",
"u c #98582C",
"v c #5C3018",
"w c #4D2616",
"x c #3E1C14",
"y c #2F1212",
"m c #888898",
"n c #9898A8",
"o c #A8A8B8",
"p c #B8B8C8",
"TNENQQQTNfagAABBBKAAfagMUQRRLFJfbfNNQQQNNNdaeFSSSSRFQecAAABFBAAT",
"NNQPQNKOQfafBBBBAAAAdaeOMTNQRRRdbNUQNNNQQNfceSSSRQTRRfcEAATABBTN",
"QPNNNQQNNecAAAAPAAAKfbfMNFMMMNNdcgFNNEQNKQfaRRRQQQORQfcfAAAAAAAQ",
"NFIRSFFFReceAAAUAAAAfaeNMONMMMMfagUSSWSSRNfbQQFQRRQQSfcAAAUAAAAN",
"QSFSFGGGFdceOAAAAFFFeaOOQEKNPJNfcSSSGSSSSSdcRRRRQQSSSdcgAAAAALAQ",
"SSSRFGHRRdafAAAAFGGGdcfRRRQMMMMdagSRRXRRRSecfQQQROSSSfbeBBAAUAAS",
"SULRRRRRRfcAAAABFGWAeafQQTRKQNNeaRLRGORRRRdcgRRSSSSSUdagABBBAAUS",
"RREQQNNQRdcfBBBPBAXAdbgQQQRRRRRdaROQTNNQRKdbgSSSSSSSSebAATBBBBBR",
"a10110011111a00aa01a0a0aaa0001aa101a00aa0a1a00000010a110000aa00a",
"66773227675557733W76566776*33565577622*665565653*277677775**3766",
"6*434520*7488**998*478848*798*54/*52999*453t*429773/4/4343897256",
"6447548027554/26W62**5/7**6o4*4///535o6344555/35o42654/r426n42/6",
"232m553401**2*365522233322454232233366632**3223546333322**565222",
"aa07435r312011a*2G0a1aa11132*a0a101022*1010a00a23*aaa0aa0a32*01a",
"SSRm44553s20AAAAABBBdbNQRERQQQQebSRQFNNFQSfbUSSPSSSSRdcfBBAAAAFS",
"RQN7458345412ABBBBJAfagMNRERRQQfbQNQQQQQNIfbSOSSFSRQQebAABBOBLAR",
"NQQ853333811TBBBAAAAdcgNNPNRERReaQQNNPNNQOfaFSSSSRPRRfcAAAATKBBN",
"QQN766w4611EATAFAAAAfbMMNOMMPGQfcNNNNNNNFNfaeSTRQRRQTecgAAAAAAEQ",
"NNN7555300cAAAAITAAAecgMIMNXOMMfaNNRSSSRQKfbQQQRPQQQRebAALAAAAAN",
"NRSm54700fceIAAAALAIdcfPNPOWNLNdafLPSSSSSRecRRRTQQRSSdcfALAAAAAN",
"SSS33511FecgAAFAAABBdceKRRNFWMMeafSRRRRRISWagQQIQKSSSdbBBAFKAAAS",
"KRRSSSSSSdcgKAAABTBAfcREQRREWOMebRRSOSKSSWX42442SSSSSebAABBAAAAK",
"RSSREQQRSecBBBBBBABBfcgRRQQRRGPfbSSPQQQRSG4424423SSSSecBPAEBBBBR",
"SRNNNNTNNdcBBBBOABBAfaeNRPRUIRRdaRNNNNNNGQ2257732SSRQfcABBOFPBBS",
"QNNNQQQNNfceAABBBAAAebeMUNRRRQQfaNNNEQQNNG2377743SQQLdaAAABBBAAQ",
"NNQQQFQQQfagBEBAAAAAfafNMMMQRRRebgQUQQQQJH4365724QQRRdcAAALABBBN",
"QQQQQQQQEdcAAEAAAAHAdcNPNNMMMHNeceQTQJTQQ35548979QRRRfcAAAAJAPAQ",
"QQUSSSSSRdagAAAAAAAFGagHNNNMMXMfbfRSSSSS4412156588IRSecAAAAAAIAQ",
"aa100101a0aaa01011100aa00aa1000000a00105531237566881a00a1a101aaa",
"5576***67556657**36757777522*75756673235122765700010117656223775",
"4433989363s35*3999*445544278927434/3988532/46/*22021204/43879244",
"44/24m63/4/65435m62/4545r*5m53t483426m5512343630055*20s3/*5m4244",
"23236662***3*3*46423*2*33246532323*2564421*22*220***002*2*6462*2",
"1111***a0a110113221000000a3*3aaa1aa132242101a0120aaa200a102321a1",
"NQRRRRRFGfceAUAAAAAAfbgXMMIMNIQebQRRRRR3121bSSR22aaa21cTAAHAAAAN",
"RORPRRRFGfaIAJIAAAAEdceQQQMMMUMdagRRRRR4322336610aaa10bAAAXAKFAR",
"RRSSSSSSSdbAAJUAUAJAecfQQQQKMMMfaRSSSOPO4521227214a510afAAAAXAAR",
"RSSSRRRSSdaIAAAAAABBeaeRRQQQOQJdbSSSRRRTS444319214a511aBBAAWAAAR",
"SSQNNNNIQdceAPAFFBIAdaeQRTRQQQQecSQFPNNNQRfcS3S21*a501ceOBBHAAUS",
"TNNNQQQQNeagAABBEBAAfbMMUQRRRRQfaNNNQQQQNNdafSS025**22afAABHBLAT",
"NNQ44322QeagBBBBAAAAdagNMMNQRKReaeONNNNNQQeaeSS1221022afAAABBBBN",
"QNN847311fcgFAAAAAAPeafMNNMMNNQecgNINQNNNNeaeTR2212200afAFAAIAAQ",
"NNQ8453700bfAFPELAAAdbfNMMNNMMMdcNQRSSSSQPeaFQQTRQQQOfbAAAIAAAAN",
"OPSm6565322fAAAAAAABfcgITMLMNNNdbgUSSSSSSSfcgRRQQJRSSecKAAAIUAAO",
"JSS845454322AEEPABBBebeRRRNMMMTecSIKRERRROeceQQQRSSSSfaeBPAAAAAJ",
"TRR7664553510AAABBAAfaRQQRROQNNeafFSSLSPRRdcfERSSSSSSfbgABBBATAT",
"RSR854537v20BBBBBAKBfaQRRQQRRRRdbfFFFNNQRSdagSSSSSSSSdagAABOBBUR",
"SQN86484800eBBAAABAAeagMQRQQQRRdbFGGGFNNNQebfSISSSSRQfcfABAAABBS",
"1a0m575w020a1111a110a00aa0aa10aa1101aaaa0100a0a0101000a0aa110101",
"555m45510565657***76775767232576566522*66766777*3*5777765722*755",
"44t3352055/4t/2877**345533779*883643988234*473299733r648528782/4",
"834*4m42/444v425m53/56/5*25n5*445//*4n435/54*524m524/454724o4*58",
"**22445**222233666*3*3*G*34662***3*36652**23333655*2*22**346633*",
"1a0a32311a1101a233100a1010332a0111a032*aaaaa00a*231101aa0a222101",
"RQJQQQQQQXaAGABBBBJAecGNNRRRRQQeaQQQQQQQQQHbeFGGGFSRReceEKBBUAAR",
"QQQNNNNNQdWfKBBBAAAAdaeNNNJRRORebeQNNNNIQXebeFFFSRRRUdcfFFABBBBQ",
"PNNNNPNNNWbHAAAAAAAAecWFNNNNTFFeagNNNJNNNNGceGGGFRJQQeafGGFAAAAP",
"NNIRRSSRQdaXAAAAAAAIdcfGFMNNFGGdagNRRSRPWNfcFGHRRQQQReaGHAJATAAN",
"NRSSSRSJSHXgATAAAAAAeaeGNMMMFGHebfUKSRSSKRfbRRRQEQRSSdcBAAAJAAAN",
"SSRJRSTRReaeAAAEFABBfbWQRQNMMFMdbeRRRIURRSdaeQQQQSSSSdbgBPAAAAIS",
"RRSSSSSSSfceAAAABBAAfcRRQRFUNMMebgSSOSSSSRecQQRTSSSSEdaATBBAAAAR",
"SSSRQQPPSfbGBBBBOAIBfbRRRQKRIRFfcGFRQQQRFSdagSSSSSSESecfBAABBBBS",
"SRQNNNNNNeGfAAAABLKEfcMNRRTQQQFdaeNNNNNNNRecSSSSSSSRQeaABBBAATAS",
"QNNNQQQQNeaeBBBBBAAAdceOMNRRRRFfceNNQTQQNNfagSSSSSQQQebAAABBBBBQ"
};