/* XPM */
static char *rose_window_xpm[] = {
"64 64 66 1",
"A c #0A1E4A",
"B c #0F2858",
"C c #143266",
"D c #193C74",
"E c #1E4682",
"F c #235090",
"G c #285A9E",
"H c #2D64AC",
"I c #326EBA",
"J c #3778C8",
"K c #4088D8",
"L c #5098E8",
"M c #4A0A1E",
"N c #5C0F26",
"O c #6E142E",
"P c #801936",
"Q c #921E3E",
"R c #A42346",
"S c #B6284E",
"T c #C82D56",
"U c #DA325E",
"V c #EC3766",
"a c #6B4A08",
"b c #7D580C",
"c c #8F6610",
"d c #A17414",
"e c #B38218",
"f c #C5901C",
"g c #D79E20",
"h c #E9AC24",
"i c #FBBA28",
"j c #FFD040",
"k c #FFE060",
"l c #FFF080",
"m c #084A32",
"n c #0C5C3E",
"o c #106E4A",
"p c #148056",
"q c #189262",
"r c #1CA46E",
"s c #20B67A",
"t c #24C886",
"u c #2E1A4A",
"v c #3C2260",
"w c #4A2A76",
"x c #58328C",
"y c #663AA2",
"z c #7442B8",
"0 c #101010",
"1 c #1A1A1A",
"2 c #242424",
"3 c #2E2E2E",
"4 c #383838",
"5 c #424242",
"+ c #FFFFFF",
"- c #FFFEF0",
"* c #FFFDE0",
"/ c #FFFCD0",
"= c #FFFBC0",
"? c #FFFAB0",
"@ c #FFF9A0",
"# c #FFF890",
"$ c #FFE8FF",
"% c #FFD8FF",
"^ c #E8FFFF",
"& c #D8FFFF",
"0000000000000000000000000000000000000000000000000000000000000000",
"0325523543344235423453354234532542345224533553254224533552355330",
"0343434333433334334333334343333444433444333333433344434434343440",
"0432232332113223123321445433453355434444455121132112122232221450",
"0542133311323331122544444435355434344353554345323312133112132430",
"02313111G12213121553435354433340054554433535544411321321F1312430",
"0333331FSH11222235335555400000000000000r353545353133121HRH133340",
"054211GTkRG11345334435000hghhh10111rrrq000q45535554211HTjTG13350",
"04321GTljjRG1355350400hghgKggh10111rqqJqq-00103334331GTllkTH1330",
"023311FRjTH15443340011hhgJKJgg10111rqKKIrqq10015343451GRlRH11330",
"0343321FRF1543530010111hhJgKIf10111qJIrKqr1101004444341FSG111350",
"05412311F14445400110111gfKKKgg10111pqIJKqr10111003545431H1312340",
"0441233115553500RS11011gf00000000000000qpq00111I00I4354513333330",
"02322313544450SSRSS1101000gkjfg011ppjl00010111HHHH0H334331233320",
"0233333433440RRKJRSR1000ghlllke011pkjjjq00011HIHJJI0I44345211450",
"0541111535400SKKJKQR00011gjkjjf011plkljp10001HHJKKJ0055353121440",
"053332435400RSIKSK00Q1011fjjkkh011oolljp011100GKIKJH005445511330",
"024234535501RSSII00QRR1011eeefi011ppoop1011HG00IIIIII01545343320",
"0331244300111*RR00jjlQ1011000000000000o0111Hkk00HGHH110034431450",
"05425445300111US0QkUjkT1000kjjj011KK+00011FlkHk0HHG1000145445440",
"0433543301100110TUklkjP0001jiii011JJJK000GGjljkG0110111013335330",
"02434444011100001RPjjQ00V011ihh011IIJ01100VFklFH0001111015544320",
"03434430GH111100111QP00VV101ihi011JIJ011V00VGF100011111S0T454440",
"04353350GHGHF001001100VUUU01iiij0KJJ011UUU00G0011001STTT0S543350",
"05453340GHHGF0-111000VVUTTU00000L00001UTTUV00111110RSSTS0T455320",
"0335330HGKJJ00FFE110011UTU0Vkkkd//LL00UUTU000111RR00RKJJT0T55420",
"0233430GJJHJ0GljkF001001U00V*1/d///1100U001100RQkkl0RKSKK0S33440",
"0545430HHJIK0lkljE0LK11000VVO-+d--+1/VV01111j0RQllj0RIKKS0T55440",
"0443330HGHKG0lklkE0KJJJV0V1O+jkjjkk+E**01iiii0kQkkl0VRKTT0T34330",
"0234430GG*FF0FljFE0KJIIJ0L/-jk?@@##k-110jihhi0kRRlk0RSRST0T53420",
"0335430111110FFEEF0KJIJJ0L/-j?*****?+//0jiihi0kRRQR0111110144450",
"04333401111101111101111K0DDDk#=*-*=#kPP0kj1110111110111110135440",
"043430000000000000000000L/*-l#/*++=#k+/*k00000000000000000004320",
"02345501111101111101111j0*/+k@*--**?+*/0LK1110111110111110134330",
"0243350111110yxyxx0jihii0kw+l@=/**/#-ee0KJJIJ0Lffgf0111110153340",
"0444330zzzzy0zlkxy0jihhi0k*1+l?@#?#+k//0KJIIJ0Lffjl0hhhii0i35450",
"0544550zzzKy0kkllx0jiiii0k1*Q++kl-+k*o*01VJJJ0Lglkl0ghIhh0h34330",
"0233430zzIJI0kkjky00j100100VQ/*I+*v*o001001100ggkll0gKIKh0h53320",
"0234550zKIzK00lklxx00011UU00/1/F**v//0VUU10001gfjj00gKiKJ0h53440",
"044533z0zJIIz0zyx110011UTUU00000*00001UUTU100111fh0hhJIK0hi44340",
"05445430zzzzy001100100VUTTU01KKLLkjj10UTTU001001100ghghi0i454320",
"03354430zzzz/1000111S00UUU01VJJK0jiii01UU00Vq1100011hhhi0i334420",
"0344555z0z111000111SRV00V101JIJ101ihi10100VVpp1100011110ih355450",
"05335533011101101TSjlRV00011JII101hhi1000VVqklpr0110111014353440",
"05333544100011110SjljlRS000KJJJ101iii0001qpljlj0q111000115544330",
"02335535001111TS00jTljS1010000000000001101pkjr00rqq1110034435430",
"0231345431011TUST00lkR1011GGLLL101kkkxw1011ql00rqqrs101134552340",
"053334333300TUUKJI00TS1011HGHGG101xxxww1101q00qII+rr001434552440",
"0543125435500UKJUJSS00011GjklHH101xxlllw1000qqrIrJI00r4333433320",
"0232221353340TKKJKTT10001IkjlkG101wkklkx00011rqJJJJ0s43545131420",
"024111144435T0TJIUUS101000jjjkG101xjkj0001011rrsJK0sr43353133450",
"0543221255334T00UUT10011I00000000000000yy11011ss00rs445341321450",
"05322333133435U00T11011-IIHHII11011xyxxyxx1101100sr5344313213320",
"03432131G13454330010111IHKJJI+11011yxKKKxz110100s5345451H1311330",
"0341131FRG1543454100111IIJJIKI11011yIKzIzy1100114553451FSG121350",
"054111GRjRF15435430100JJIKIJIJ11011yzKJIzy001014544531FRkRG12440",
"05331HTkklSH1334535511000JKIJJ11011yyyK000z1143543451FTllkSG1430",
"034311GRjTF13134534444IIJ00000000000000zzyy44435443311FTlTH12420",
"0233311GRG111121354454445JIJJI11011yzzzy545333555212211GRF123340",
"04311321H12232112453344535355544054554535353335511132121H1123340",
"0433322213133113131533335334453543355455353533211133131313111330",
"0343334444344434333333334344434433333433443444344334333444344430",
"0354334532443344334433542354234423452244235422452344235432452340",
"0000000000000000000000000000000000000000000000000000000000000000"
};